X: 278
T:Anything for John Joe
R:reel
O:Ireland
B:Matt Cranitch
M:4/4
L:1/8
K:D
DE|F2 AF G2 BG|F2 AF (3EFE DE|F2 AF G2 BG|AB (3cBA d2:|
de|f2 af e2 de|faaf (3efe de|f2 af gfed|cABc d2 de|
f2 af e2 de|faaf (3efe dc|defg a4|AB (3cBA d2|]
